**kern	**kern	**dynam
*part1	*part1	*part1
*staff2	*staff1	*
*I"Piano	*	*
*clefF4	*clefF4	*
*k[f#c#]	*k[f#c#]	*
=1	=1	=1
*	*^	*
(4E	((2G	2.ryy	.
8GGL	.	.	.
8AAJ	.	.	.
4BB)	4D))	.	.
*	*v	*v	*
4GG	(8BBL	.
.	8C#J)	.
=	=	=
2FF#	2AA 2D	.
2AAA	2AA 2C# 2E	.
=	=	=
2DD	2AA 2D 2F#	.
4r	4r	.
*	*clefG2	*
(4F#	(4f#	pp
=	=	=
2B	2b	.
4A#X	4a#X	.
4E) 4G#X	4e) 4g#X	.
=	=	=
(4D#X 4F#	(4d#X 4f#	.
8EL 8G#X	8eL 8g#X	.
8C#J 8A#X	8c#J 8a#X	.
4D#) 4B	4d#) 4b	.
4E 4B 4c#	4g# 4b 4cc#	.
=	=	=
2F# 2B 2d#X	2f# 2b 2dd#X	.
2F# 2A#X 2c#	2e 2f# 2a#X 2cc#	.
=	=	=
2.BB; 2.F# 2.B	2.d#X; 2.f# 2.b	.
4dn	4f# 4b	p
=	=	=
*-	*-	*-
!!!system-decoration: {(s1,s2)}
